public/img/burgermenuclose.svg

<svg width="24" height="24" viewBox="0 0 24 24" fill="none" xmlns="http://www.w3.org/2000/svg">
<path fill-rule="evenodd" clip-rule="evenodd" d="M5.85763 5.85861C6.02849 5.68776 6.3055 5.68776 6.47635 5.85861L12.0003 11.3826L17.5243 5.85861C17.6952 5.68776 17.9722 5.68776 18.143 5.85861C18.3139 6.02946 18.3139 6.30647 18.143 6.47733L12.619 12.0013L18.143 17.5253C18.3139 17.6961 18.3139 17.9731 18.143 18.144C17.9722 18.3148 17.6952 18.3148 17.5243 18.144L12.0003 12.62L6.47635 18.144C6.3055 18.3148 6.02849 18.3148 5.85763 18.144C5.68678 17.9731 5.68678 17.6961 5.85763 17.5253L11.3816 12.0013L5.85763 6.47733C5.68678 6.30647 5.68678 6.02946 5.85763 5.85861Z" fill="#757373" stroke="#757373" stroke-width="0.5"/>
</svg>

<svg width="24" height="24" viewBox="0 0 24 24" fill="none" xmlns="http://www.w3.org/2000/svg"><path fill-rule="evenodd" clip-rule="evenodd" d="M5.858 5.859a.436.436 0 01.618 0L12 11.383l5.524-5.524a.437.437 0 11.619.618l-5.524 5.524 5.524 5.524a.437.437 0 11-.619.619L12 12.62l-5.524 5.524a.438.438 0 01-.618-.619l5.524-5.524-5.524-5.524a.438.438 0 010-.618z" fill="#757373" stroke="#757373" stroke-width=".5"/></svg>
